content/themes/alexed/assets/app/icons/logo.svg

<?xml version="1.0" encoding="UTF-8"?>
<svg width="110px" height="89px" viewBox="0 0 110 89" version="1.1" xmlns="http://www.w3.org/2000/svg" xmlns:xlink="http://www.w3.org/1999/xlink">
    <!-- Generator: Sketch 49 (51002) - http://www.bohemiancoding.com/sketch -->
    <title>Page 1</title>
    <desc>Created with Sketch.</desc>
    <defs>
        <polygon id="path-1" points="0 0 110 0 110 89 0 89"></polygon>
    </defs>
    <g id="Home" stroke="none" stroke-width="1" fill="none" fill-rule="evenodd">
        <g id="Home-v1.0" transform="translate(-195.000000, -169.000000)">
            <g id="Header" transform="translate(95.000000, 140.000000)">
                <g id="Page-1" transform="translate(100.000000, 29.000000)">
                    <mask id="mask-2" fill="white">
                        <use xlink:href="#path-1"></use>
                    </mask>
                    <g id="Clip-2"></g>
                    <path d="M45.3992988,53.303384 C44.5172339,55.9641996 43.4052848,58.4923172 42.0711839,60.8925082 C41.1117969,62.6205622 40.0631924,64.2499129 38.9310207,65.7829458 C38.4887986,66.3817262 38.0349783,66.9673859 37.5668831,67.5366448 C35.8970265,69.5622998 34.1480636,71.3046673 32.3238604,72.7598707 C30.4993599,74.2189506 28.6451202,75.3601521 26.7602491,76.1876499 C24.8756753,77.0157442 23.0476061,77.4272566 21.2837736,77.4272566 C19.7120563,77.4272566 18.3663571,77.1251826 17.2466758,76.5126851 C16.127292,75.9004858 15.2038895,75.0655331 14.4803345,74.0033539 C13.7526161,72.9411747 13.2211764,71.7093212 12.8895842,70.3107753 C12.557992,68.9125276 12.3920472,67.4459928 12.3920472,65.9114689 C12.3920472,63.1978724 12.8405145,60.8054346 13.7451813,58.7383301 C14.6459819,56.6709274 15.8938392,54.8793574 17.4842921,53.3639181 C19.0750425,51.8481807 20.967051,50.5781579 23.1683473,49.554148 C25.3657775,48.5298398 27.7517543,47.702342 30.3224116,47.0710581 C32.4597686,46.5495108 34.7026998,46.141875 37.0440678,45.8493433 C37.5187056,45.790002 37.9960199,45.7336427 38.4789847,45.6838437 C41.3437628,45.3892247 44.2308453,45.2040441 47.1369609,45.1244254 C46.8615758,47.9212189 46.2813638,50.6464451 45.3992988,53.303384 M56.7028751,31.2060611 C57.2539427,28.7587549 57.972442,26.3710883 58.8586704,24.0412719 C59.7440067,21.7123501 60.8167,19.511355 62.0770477,17.4385847 C62.9076638,16.0722442 63.8257132,14.8195169 64.8279246,13.6759298 C65.3453869,13.0854989 65.883964,12.522204 66.4469272,11.9908162 C68.1007247,10.4318401 69.9701314,9.19849561 72.0575265,8.28988809 C74.1434347,7.38217517 76.466067,6.92802051 79.0257208,6.92802051 C80.7577324,6.92802051 82.3716793,7.26379079 83.8681563,7.93473497 C85.3640386,8.60627555 86.6535307,9.52412719 87.7360379,10.6879917 C88.81914,11.853049 89.6652205,13.2253535 90.2760639,14.8037124 C90.8860151,16.3829659 91.1914367,18.0806038 91.1914367,19.8960296 C91.1914367,22.620063 90.3837198,25.038444 88.7700703,27.1499799 C87.1549338,29.2621122 84.8224876,31.0784326 81.7721368,32.5977484 C78.7205965,34.1179589 74.9802961,35.3614421 70.5515329,36.3281981 C68.9985514,36.6675467 67.3724114,36.9708135 65.6763843,37.2397876 C62.5356263,37.7374791 59.151899,38.1152952 55.5219311,38.3711486 C55.7580604,36.042525 56.1512128,33.6542619 56.7028751,31.2060611 M104.684414,70.3716076 C101.238829,71.7155833 99.5252555,72.879746 93.6547355,76.0844736 C87.8383408,79.2596797 83.6296479,80.3683777 77.4777949,80.3683777 C70.5286337,80.3683777 65.740621,76.1387456 62.1552618,72.5433793 C61.1848714,71.5706594 60.3756675,70.2350332 59.53494,69.059539 C57.6206271,66.3817262 56.2630322,62.7529619 55.4921919,58.4449038 C54.6933967,53.9808886 54.9592652,50.0592944 55.1719006,45.1342659 C58.6552542,44.8309991 62.0217328,44.4510956 65.273418,43.9966428 C68.7814552,43.5064062 72.1562607,42.9287978 75.3939685,42.2632212 C81.6338495,40.9806741 87.0573892,39.2928768 91.663398,37.2001273 C96.2700016,35.1079743 99.8818286,32.7560913 102.500069,29.7553307 C105.118309,26.7560611 106.427429,21.4949641 106.427429,17.4684045 C106.427429,14.7056054 105.837105,12.2380218 104.655864,10.0662501 C103.474623,7.89596931 101.889523,6.06951015 99.9017539,4.58895999 C97.9133903,3.10870803 95.5999772,1.97436507 92.9630015,1.18414193 C90.3245388,0.394813375 85.2706575,0 82.3574045,0 C77.9476744,0 71.5460121,0.690923407 67.7069775,2.07247202 C63.932477,3.43165583 60.462506,5.29688065 57.2973619,7.6669537 L56.4732884,6.71063459 C54.6452192,4.60536085 52.2705433,3.00284795 49.345692,1.89951752 C46.4208407,0.795888896 42.8964469,0.0155062655 38.7766742,0.0155062655 C36.5379065,0.0155062655 34.0746077,0.0676908128 31.4533938,0.48307981 C28.6915133,0.92113181 26.754896,1.32071634 23.8690031,2.23469142 C21.243923,3.06576761 18.7232276,4.29076258 16.2739063,5.66157609 C13.74875,7.07503183 11.4038133,8.9459224 9.51061518,10.8209877 C8.92296839,11.4030691 8.38558087,12.0140756 7.88893607,12.6450613 C6.88107425,13.9258192 6.04213114,15.289476 5.29478479,16.6617805 C4.17510354,18.7103967 3.61719597,20.8946928 3.61719597,23.2155632 C3.61719597,24.6325973 3.86254445,25.9139516 4.35234924,27.0554513 C4.84245141,28.1966528 5.50950189,29.1643034 6.35379806,29.9503518 C7.19809422,30.7364002 8.19703428,31.337268 9.35805303,31.7493768 C10.5149083,32.165064 11.7627655,32.369031 13.0968665,32.369031 C15.0917727,32.369031 17.0721067,31.9452925 19.0375711,31.0981137 C19.2615073,31.0250553 19.5074506,30.9239664 19.7587469,30.7972325 C19.9672188,30.6919688 20.159334,30.5795483 20.3285502,30.4665315 L19.8470723,29.6995678 C18.6390656,28.0072975 17.7097153,26.2697011 17.0697275,24.4852878 C16.383644,22.5765262 16.0407509,20.6755177 16.0407509,18.7858406 C16.0407509,17.1719962 16.3045377,15.6678885 16.8359773,14.2696408 C17.3638483,12.871095 18.2268802,11.6616062 19.4253703,10.6372981 C20.6241579,9.61686658 22.1845742,8.8081552 24.1104855,8.21861891 C26.032828,7.62908262 28.3887682,7.33058701 31.1780087,7.33058701 C33.2585638,7.33058701 35.3391189,7.68574013 37.419674,8.392468 C39.5005266,9.10277424 41.3624985,10.1837399 43.013322,11.6428198 C44.664443,13.1016016 45.9985439,14.9686156 47.0200858,17.2513168 C47.1322026,17.5026972 47.237182,17.7603397 47.3368083,18.0215607 C48.1433357,20.1345875 48.5504655,22.574737 48.5504655,25.3393252 C48.5504655,28.1364169 48.4600583,30.6985291 48.2863813,33.0193996 C48.109433,35.3435502 47.883415,35.802476 47.6080299,38.2816893 C44.2897289,38.2816893 43.3003054,38.4448033 40.078062,38.7635764 C39.1424665,38.8563158 29.2535844,40.4209576 25.5635433,41.501625 C21.8735021,42.5825906 18.4585486,43.9432654 15.3189803,45.5758963 C12.1752484,47.2088253 9.47641509,49.1474067 7.21861428,51.392535 C4.96081347,53.6376633 3.12560683,56.1440126 1.91908709,59.0081988 C0.616509695,62.1011023 -0.062139073,67.6240166 0.00447675704,70.3975508 C0.0690108424,73.0765563 0.445509239,75.5492093 1.3275742,77.8128258 C2.20934177,80.0767406 3.44946682,82.0347048 5.04021716,83.6864203 C6.6306701,85.3414159 8.54171172,86.6379783 10.7807768,87.5826677 C13.0195445,88.5276553 15.4920625,89 18.2021966,89 C21.500275,89 25.1070464,88.2026201 28.1113014,86.6114387 C31.1116902,85.016679 34.3232275,82.8696576 36.9771546,80.2920391 C38.2383945,79.065255 40.9089755,76.5129833 42.1169822,75.1961435 C43.0751796,74.1518562 45.5931985,71.3953193 45.6044994,71.3747437 C46.8719845,73.853957 48.8377463,76.3212424 50.7806088,78.1638042 C65.5160899,92.1340548 82.4552465,90.8816257 99.5252555,78.8368358 C103.746142,75.85844 110,69.5879448 110,69.5879448 C110,69.5879448 107.498338,69.2745393 104.684414,70.3716076" id="Fill-1" fill="#000000" mask="url(#mask-2)"></path>
                </g>
            </g>
        </g>
    </g>
</svg>

<svg width="110" height="89" viewBox="0 0 110 89" xmlns="http://www.w3.org/2000/svg" xmlns:xlink="http://www.w3.org/1999/xlink"><title>Page 1</title><defs><path id="a" d="M0 0h110v89H0z"/></defs><g fill="none" fill-rule="evenodd"><mask id="b" fill="#fff"><use xlink:href="#a"/></mask><path d="M45.4 53.303a44.23 44.23 0 0 1-3.329 7.59 44.942 44.942 0 0 1-4.504 6.644c-1.67 2.025-3.419 3.768-5.243 5.223-1.825 1.459-3.679 2.6-5.564 3.428-1.884.828-3.712 1.24-5.476 1.24-1.572 0-2.918-.303-4.037-.915a7.872 7.872 0 0 1-2.767-2.51c-.727-1.062-1.259-2.294-1.59-3.692a19.009 19.009 0 0 1-.498-4.4c0-2.713.449-5.106 1.353-7.173a16.377 16.377 0 0 1 3.74-5.374c1.59-1.516 3.482-2.786 5.683-3.81 2.198-1.024 4.584-1.852 7.154-2.483 2.138-.521 4.38-.93 6.722-1.222.475-.059.952-.115 1.435-.165 2.865-.295 5.752-.48 8.658-.56a37.554 37.554 0 0 1-1.738 8.18m11.304-22.098a52.661 52.661 0 0 1 2.156-7.165 40.107 40.107 0 0 1 3.218-6.602 26.868 26.868 0 0 1 2.75-3.763 24.706 24.706 0 0 1 1.62-1.685 19.412 19.412 0 0 1 5.61-3.701c2.086-.908 4.41-1.362 6.969-1.362 1.732 0 3.346.336 4.842 1.007a11.845 11.845 0 0 1 3.868 2.753c1.083 1.165 1.93 2.537 2.54 4.116.61 1.579.915 3.277.915 5.092 0 2.724-.807 5.142-2.42 7.254-1.616 2.112-3.949 3.928-6.999 5.448-3.051 1.52-6.792 2.763-11.22 3.73-1.553.34-3.18.643-4.876.912-3.14.497-6.524.875-10.154 1.131.236-2.328.63-4.717 1.18-7.165m47.982 39.166c-3.445 1.344-5.159 2.508-11.03 5.712-5.816 3.176-10.024 4.284-16.176 4.284-6.95 0-11.737-4.23-15.323-7.825-.97-.972-1.78-2.308-2.62-3.483-1.914-2.678-3.272-6.307-4.043-10.615-.799-4.464-.533-8.386-.32-13.31a196.76 196.76 0 0 0 10.101-1.138c3.508-.49 6.883-1.068 10.121-1.734 6.24-1.282 11.663-2.97 16.27-5.063 4.606-2.092 8.218-4.444 10.836-7.445 2.618-2.999 3.927-8.26 3.927-12.287 0-2.762-.59-5.23-1.771-7.402a16.722 16.722 0 0 0-4.754-5.477c-1.989-1.48-4.302-2.615-6.939-3.405C90.325.394 85.271 0 82.357 0c-4.41 0-10.811.69-14.65 2.072a39.709 39.709 0 0 0-10.41 5.595l-.824-.956c-1.828-2.106-4.202-3.708-7.127-4.811C46.42.796 42.896.016 38.776.016c-2.238 0-4.701.052-7.323.467-2.761.438-4.698.838-7.584 1.752-2.625.83-5.146 2.056-7.595 3.427-2.525 1.413-4.87 3.284-6.763 5.159a19.775 19.775 0 0 0-1.622 1.824c-1.008 1.28-1.847 2.644-2.594 4.017a13.456 13.456 0 0 0-1.678 6.554c0 1.417.246 2.698.735 3.84.49 1.14 1.158 2.108 2.002 2.894a8.541 8.541 0 0 0 3.004 1.8c1.157.415 2.405.619 3.739.619 1.995 0 3.975-.424 5.94-1.27a5.477 5.477 0 0 0 1.291-.632l-.48-.767c-1.209-1.693-2.138-3.43-2.778-5.215-.686-1.908-1.03-3.81-1.03-5.7 0-1.613.265-3.117.796-4.515.528-1.399 1.39-2.608 2.59-3.633 1.198-1.02 2.759-1.829 4.684-2.418 1.923-.59 4.279-.888 7.068-.888 2.08 0 4.161.355 6.242 1.061a16.32 16.32 0 0 1 5.593 3.25c1.651 1.46 2.986 3.327 4.007 5.61.112.25.217.508.317.77.806 2.113 1.213 4.553 1.213 7.317 0 2.797-.09 5.36-.264 7.68-.177 2.325-.403 2.783-.678 5.263-3.318 0-4.308.163-7.53.482-.936.092-10.824 1.657-14.514 2.738-3.69 1.08-7.105 2.441-10.245 4.074-3.144 1.633-5.843 3.571-8.1 5.817-2.258 2.245-4.093 4.751-5.3 7.615C.617 62.101-.062 67.624.004 70.398c.065 2.679.442 5.151 1.324 7.415.881 2.264 2.121 4.222 3.712 5.873 1.59 1.655 3.502 2.952 5.74 3.897 2.24.945 4.712 1.417 7.422 1.417 3.298 0 6.905-.797 9.91-2.389 3-1.594 6.211-3.741 8.865-6.319 1.261-1.227 3.932-3.779 5.14-5.096.958-1.044 3.476-3.8 3.487-3.821 1.268 2.479 3.234 4.946 5.177 6.789 14.735 13.97 31.674 12.718 48.744.673 4.221-2.979 10.475-9.25 10.475-9.25s-2.502-.312-5.316.785" fill="#000" mask="url(#b)"/></g></svg>
